app/assets/images/heroicons/outline/cursor-arrow-rays.svg

<svg width="24" height="24" viewBox="0 0 24 24" fill="none" xmlns="http://www.w3.org/2000/svg">
<path d="M15.0423 21.6718L13.6835 16.6007M13.6835 16.6007L11.1741 18.826L11.7425 9.35623L16.9697 17.2731L13.6835 16.6007ZM12 2.25V4.5M17.8336 4.66637L16.2426 6.25736M20.25 10.5H18M7.75736 14.7426L6.16637 16.3336M6 10.5H3.75M7.75736 6.25736L6.16637 4.66637" stroke="#0F172A" stroke-width="1.5" stroke-linecap="round" stroke-linejoin="round"/>
</svg>

<svg xmlns="http://www.w3.org/2000/svg" fill="none" viewBox="0 0 24 24" stroke-width="1.5" stroke="currentColor" aria-hidden="true" data-slot="icon">
  <path stroke-linecap="round" stroke-linejoin="round" d="M15.042 21.672 13.684 16.6m0 0-2.51 2.225.569-9.47 5.227 7.917-3.286-.672ZM12 2.25V4.5m5.834.166-1.591 1.591M20.25 10.5H18M7.757 14.743l-1.59 1.59M6 10.5H3.75m4.007-4.243-1.59-1.59"/>
</svg>
